X:180
T:Hewlett
C:O'Carolan
B:Ossian p.54 #56 (in A)
D:Maureen Brennan "To Bend the Knotted Oak"
D:Planxty "The Well Below the Valley"
D:Maire Ni Chathasaigh and Chris Newman "Carolan Album"
D:Derek Bell 
D:Dance Across the Sea "Dance Across the Sea"
Z:1998 by John Chambers <jc@trillian.mit.edu>
S:Jim Coon to CoMandoList TOW
M:3/4
L:1/8
Q:3/8=110
K:D
A2 \
| "D"D2 D2 FG | "A7"AB c2 A2 | "D"d2 f2    fg |    fe d3 B | !
    A2 F2 F2 |  "G"G2 GB AG \
| "D"AF D2 "G"D2 |1 "D"D4 :|2"D"D4-D2|!
|| "D"A2 D2 AB | A2 D2 AB | A2 d2 d2 |    dc BA GF |!
  "Em"G2 E2 GA | G2 E2 GA | G2 GA BG | "D"AF D3  E |!
|  "D"FE F2 G2 | "A7"AB c2 A2 | "D"fe fg    ag | "G"fe d3 B|!
   "D"A2 AB AF |  "G"G3  A BG | "D"AF D2 "G"D2 | "D"D4 |]!
